lib/logo_tmp/nrk-logo-nrk-radio-title-below.svg

<svg width="44" height="41" viewBox="0 0 44 41" fill="none" xmlns="http://www.w3.org/2000/svg">
<path d="M6.10352e-05 17.9968V5.99792H3.93725V17.9968H6.10352e-05ZM9.29387 7.90761L11.5581 17.9968H7.24923L4.54555 5.99792H6.96224C7.51641 5.99072 8.05412 6.18607 8.47456 6.54722C8.89568 6.89321 9.18501 7.37352 9.29387 7.90761ZM12.1496 17.9968V5.99792H16.0868V17.9968H12.1496ZM19.0605 10.5609C18.6363 10.5651 18.2188 10.4541 17.8526 10.2398C17.4913 10.0309 17.1912 9.73079 16.9823 9.36942C16.7678 9.00316 16.6568 8.58559 16.661 8.16114C16.6562 7.73929 16.7673 7.32421 16.9823 6.96125C17.1934 6.60382 17.4932 6.30692 17.8526 6.09935C18.2189 5.88533 18.6363 5.77434 19.0605 5.77821C19.4823 5.77367 19.8972 5.88475 20.2603 6.09935C20.6161 6.30874 20.9127 6.60539 21.1221 6.96125C21.3369 7.32431 21.448 7.73932 21.4434 8.16114C21.4473 8.58555 21.3363 9.00305 21.1221 9.36942C20.9149 9.7292 20.618 10.0291 20.2603 10.2398C19.8972 10.4548 19.4819 10.5659 19.06 10.5609H19.0605ZM22.0517 17.9968V5.99792H25.9892V17.9968H22.0517ZM30.9738 12.5551C30.9849 12.5667 31.0693 12.7047 31.2272 12.9691C31.3851 13.2335 31.5907 13.5715 31.844 13.9831C32.0975 14.3945 32.3649 14.8311 32.6464 15.2928C32.9278 15.7546 33.1927 16.1912 33.4409 16.6026C33.6882 17.014 33.9698 17.4788 34.2858 17.9968H29.9599C29.6893 17.5574 29.4442 17.1603 29.2245 16.8054C29.0049 16.4505 28.7714 16.0674 28.5239 15.6562C28.2759 15.2453 28.0307 14.8454 27.7883 14.4563C27.5459 14.0672 27.3376 13.7264 27.1633 13.4339C26.9883 13.1411 26.8671 12.9439 26.7997 12.8424C26.6326 12.5903 26.5337 12.2991 26.5127 11.9974C26.5295 11.7078 26.6227 11.4278 26.7828 11.1859C26.8504 11.0733 26.9743 10.8733 27.1546 10.586C27.3348 10.2987 27.5461 9.95788 27.7883 9.56355C28.0305 9.16922 28.2757 8.76643 28.5239 8.3552C28.7721 7.94397 29.0056 7.55806 29.2245 7.19753C29.4446 6.83738 29.6897 6.43741 29.9599 5.99764H34.2858L30.9397 11.4563C30.8361 11.6184 30.7778 11.8052 30.7707 11.9974C30.7818 12.1991 30.8523 12.3931 30.9732 12.5551H30.9738Z" fill="white"/>
<path d="M5.88318 30.053C6.10798 30.0186 6.32984 29.9669 6.54663 29.8982C6.98597 29.7615 7.39172 29.5342 7.73769 29.2309C8.0823 28.9231 8.35357 28.5421 8.53168 28.1158C8.7319 27.6255 8.82964 27.0995 8.8189 26.57C8.82645 25.9523 8.69665 25.3407 8.43881 24.7794C8.17242 24.2249 7.73382 23.7715 7.18856 23.4867C6.46104 23.1334 5.65666 22.9678 4.84872 23.0052H0V35.0003H1.75703V30.405H4.3416L7.33217 35.0003H9.39305L6.58856 30.8446L5.88318 30.053ZM5.91309 24.7031C6.26297 24.8365 6.55554 25.0874 6.74063 25.413C6.93415 25.7912 7.02722 26.213 7.01093 26.6376C7.03199 27.1075 6.91777 27.5737 6.68178 27.9807C6.45837 28.3272 6.12524 28.5889 5.73566 28.724C5.26578 28.8856 4.77106 28.9628 4.2743 28.9521H1.75703V24.475H4.47675C4.96568 24.4587 5.45324 24.5362 5.91309 24.7031Z" fill="white"/>
<path d="M18.4992 33.9362C18.3757 33.9476 18.2513 33.9289 18.1365 33.8818C18.0218 33.8347 17.9202 33.7605 17.8403 33.6657C17.6836 33.395 17.6185 33.081 17.6545 32.7703L17.6883 29.2902C17.692 28.9253 17.6465 28.5615 17.5531 28.2087C17.4709 27.8994 17.3336 27.6076 17.1476 27.3471C16.9596 27.0926 16.7209 26.8797 16.4465 26.722C16.1277 26.541 15.783 26.41 15.4244 26.3337C14.9859 26.239 14.5382 26.1936 14.0897 26.1986C13.7339 26.1983 13.3783 26.2208 13.0253 26.2659C12.6918 26.3078 12.3616 26.3727 12.037 26.4601C11.736 26.5419 11.4399 26.6407 11.1501 26.7561L10.9474 28.1921C11.2289 28.0908 11.4965 28.0062 11.7501 27.9387C12.0037 27.8711 12.2486 27.8148 12.4847 27.7698C12.7165 27.7254 12.9506 27.6945 13.1859 27.6771C13.4166 27.6598 13.6446 27.6513 13.8701 27.6515C14.2146 27.6442 14.5585 27.684 14.8922 27.7698C15.1357 27.8307 15.3596 27.9528 15.5427 28.1246C15.7056 28.2916 15.8221 28.4983 15.8806 28.7243C15.9526 29.0029 15.9867 29.29 15.9819 29.5777L15.98 30.0015L14.0052 30.1352C13.3298 30.1541 12.6644 30.3032 12.0455 30.5742C11.5823 30.7769 11.1826 31.1009 10.8882 31.5119C10.6385 31.8777 10.5059 32.3108 10.5081 32.7536C10.5049 33.1692 10.6066 33.5788 10.8037 33.9447C11.0103 34.3206 11.3213 34.6286 11.6991 34.8316C12.16 35.0714 12.6751 35.1878 13.1943 35.1696C13.6808 35.1808 14.1651 35.1005 14.6219 34.933C15.017 34.7785 15.3784 34.5491 15.6863 34.2573C15.8031 34.1451 15.914 34.027 16.0185 33.9033C16.0514 34.0782 16.1133 34.2464 16.2015 34.4009C16.352 34.6596 16.5836 34.8614 16.8604 34.9752C17.1664 35.0981 17.4938 35.1585 17.8234 35.1527C17.9248 35.1527 18.0233 35.1498 18.1191 35.1442C18.2131 35.1388 18.3064 35.1247 18.3978 35.102C18.4879 35.0795 18.5693 35.0597 18.6428 35.0428C18.709 35.0281 18.7739 35.0083 18.8371 34.9837L19.0229 33.8518C18.9297 33.8838 18.8335 33.9064 18.7357 33.9193C18.6573 33.9299 18.5783 33.9356 18.4992 33.9362ZM15.6863 33.176C15.5031 33.3208 15.3049 33.4455 15.095 33.5477C14.886 33.6495 14.6645 33.7233 14.4363 33.7673C14.1996 33.8131 13.9591 33.8357 13.7181 33.8349C13.4427 33.8428 13.1689 33.7909 12.9156 33.6829C12.7094 33.5934 12.5355 33.4431 12.4172 33.252C12.3002 33.0495 12.2416 32.8185 12.2482 32.5847C12.2319 32.303 12.3091 32.0239 12.4678 31.7907C12.6519 31.5761 12.9011 31.4278 13.1774 31.3683C13.6091 31.2667 14.0522 31.2213 14.4955 31.2332H15.9746L15.967 32.9102C15.8811 33.0065 15.7873 33.0957 15.6863 33.176Z" fill="white"/>
<path d="M26.4911 26.6085C26.4739 26.6018 26.4579 26.5936 26.4404 26.5868C26.1247 26.4679 25.7998 26.3747 25.469 26.308C25.0823 26.2319 24.689 26.1952 24.2949 26.1985C23.5567 26.194 22.8307 26.3865 22.1918 26.7561C21.5322 27.1396 20.9913 27.6979 20.629 28.3695C20.2132 29.1629 20.0094 30.0503 20.0377 30.9457C20.0183 31.7186 20.1713 32.4861 20.4854 33.1926C20.7596 33.796 21.2065 34.3046 21.7697 34.654C22.3752 35.0105 23.069 35.1891 23.7714 35.1693C24.2023 35.1719 24.6315 35.115 25.0469 35.0003C25.4609 34.8816 25.8561 34.7052 26.2211 34.4766C26.3475 34.3986 26.4745 34.311 26.6007 34.2195L26.8127 35.0003H28.2147V22.2618L26.4914 22.4984L26.4911 26.6085ZM25.5873 33.5558C25.2021 33.7076 24.7932 33.7906 24.3793 33.8011C23.8965 33.8151 23.4186 33.7014 22.994 33.4714C22.5989 33.2378 22.2905 32.882 22.1155 32.4577C21.8963 31.9133 21.7927 31.3292 21.8114 30.7426C21.7916 30.1418 21.9071 29.5442 22.1492 28.994C22.3556 28.5476 22.6949 28.1758 23.1206 27.9296C23.584 27.6775 24.1057 27.5522 24.633 27.5664C24.9043 27.5658 25.1753 27.5856 25.4436 27.6256C25.71 27.6668 25.9727 27.729 26.2293 27.8117C26.3118 27.8379 26.4027 27.8728 26.4911 27.9049V33.1118C26.2037 33.287 25.9009 33.4356 25.5864 33.5558H25.5873Z" fill="white"/>
<path d="M30.8491 35.0003H32.5724V26.2152L30.8491 26.4686V35.0003Z" fill="white"/>
<path d="M32.3274 22.6757C32.152 22.5686 31.95 22.5129 31.7445 22.5152C31.5364 22.5136 31.3319 22.5691 31.1532 22.6757C30.977 22.7789 30.829 22.924 30.7224 23.0981C30.6153 23.2735 30.5596 23.4755 30.5619 23.681C30.5602 23.8891 30.6157 24.0936 30.7224 24.2723C30.8256 24.4491 30.9744 24.595 31.1532 24.6946C31.3336 24.7961 31.5375 24.8485 31.7445 24.8467C31.9489 24.8492 32.1502 24.7967 32.3274 24.6946C32.5012 24.5942 32.6444 24.4481 32.7413 24.2723C32.8428 24.0919 32.8953 23.888 32.8933 23.681C32.8958 23.4766 32.8433 23.2753 32.7413 23.0981C32.6409 22.9248 32.4986 22.7796 32.3274 22.6757Z" fill="white"/>
<path d="M42.8439 28.2679C42.5073 27.622 41.9872 27.09 41.349 26.7389C40.6451 26.3651 39.8567 26.179 39.0598 26.1986C38.2556 26.1801 37.4604 26.3723 36.7534 26.7561C36.1008 27.1213 35.5671 27.6667 35.216 28.327C34.8348 29.068 34.646 29.893 34.667 30.726C34.6454 31.5526 34.8221 32.3723 35.1823 33.1166C35.5059 33.7664 36.0221 34.3004 36.6605 34.6458C37.3478 35.0058 38.115 35.1859 38.8906 35.1693C39.7026 35.1855 40.5052 34.9935 41.2221 34.6117C41.8915 34.2467 42.4403 33.695 42.8019 33.0237C43.1942 32.274 43.389 31.4367 43.3679 30.5909C43.387 29.7852 43.2071 28.9873 42.8439 28.2679ZM41.2473 32.3986C41.0577 32.8376 40.736 33.2067 40.3269 33.4545C39.9159 33.6898 39.4489 33.8096 38.9754 33.8011C38.511 33.8126 38.0532 33.6893 37.6575 33.446C37.2661 33.1859 36.9604 32.8156 36.7791 32.382C36.5492 31.8254 36.4399 31.2265 36.4584 30.6246C36.4383 30.0392 36.5478 29.4565 36.7791 28.9183C36.9686 28.4953 37.2843 28.1413 37.6829 27.9047C38.1092 27.6701 38.5903 27.5534 39.0767 27.5668C39.4564 27.5573 39.8338 27.6293 40.1833 27.778C40.4895 27.9161 40.7566 28.1279 40.9608 28.3946C41.1784 28.6845 41.3362 29.0148 41.4251 29.3663C41.5307 29.7773 41.5819 30.2003 41.5771 30.6246C41.5968 31.2328 41.4843 31.8381 41.2473 32.3986Z" fill="white"/>
</svg>

<svg xmlns="http://www.w3.org/2000/svg" viewBox="0 0 44 41"><path fill="#fff" d="M0 17.997v-12h3.937v12H0Zm9.294-10.09 2.264 10.09H7.25l-2.703-12h2.416a2.276 2.276 0 0 1 1.513.55c.42.346.71.827.819 1.36Zm2.856 10.09v-12h3.937v12H12.15Zm6.91-7.436a2.383 2.383 0 0 1-2.4-2.4 2.303 2.303 0 0 1 .322-1.2A2.412 2.412 0 0 1 20.26 6.1c.356.21.653.506.862.862.215.363.326.778.321 1.2a2.4 2.4 0 0 1-1.183 2.079 2.303 2.303 0 0 1-1.2.32Zm2.992 7.436v-12h3.937v12h-3.937Zm8.922-5.442c.01.012.095.15.253.414s.364.603.617 1.014a327.152 327.152 0 0 1 1.597 2.62c.247.411.529.876.845 1.394H29.96c-.27-.44-.516-.837-.736-1.192-.22-.354-.453-.738-.7-1.149-.248-.41-.493-.81-.736-1.2-.242-.389-.45-.73-.625-1.022-.175-.293-.296-.49-.363-.592a1.75 1.75 0 0 1-.287-.845c.016-.29.11-.57.27-.811.067-.113.191-.313.372-.6a182.106 182.106 0 0 0 1.37-2.23c.247-.412.48-.798.7-1.158l.735-1.2h4.326l-3.346 5.458a1.079 1.079 0 0 0-.17.541c.012.202.082.396.203.558ZM5.883 30.053c.225-.034.447-.086.664-.155.439-.136.845-.364 1.19-.667.345-.308.617-.689.795-1.115.2-.49.298-1.017.287-1.546a4.167 4.167 0 0 0-.38-1.79 2.852 2.852 0 0 0-1.25-1.293 4.844 4.844 0 0 0-2.34-.482H0V35h1.757v-4.595h2.585L7.332 35h2.061L6.59 30.845l-.706-.792Zm.03-5.35c.35.134.643.384.828.71.193.378.286.8.27 1.225.021.47-.093.936-.33 1.343a1.845 1.845 0 0 1-.945.743c-.47.162-.965.239-1.462.228H1.757v-4.477h2.72c.489-.016.976.061 1.436.228ZM18.5 33.936a.77.77 0 0 1-.66-.27 1.453 1.453 0 0 1-.186-.896l.034-3.48a4.065 4.065 0 0 0-.135-1.081 2.657 2.657 0 0 0-.405-.862 2.291 2.291 0 0 0-.701-.625 3.579 3.579 0 0 0-1.023-.388 6.006 6.006 0 0 0-1.334-.135c-.356 0-.712.022-1.065.067a7.302 7.302 0 0 0-.988.194c-.301.082-.597.18-.887.296l-.203 1.436a9.904 9.904 0 0 1 1.538-.422 6.13 6.13 0 0 1 .7-.093c.232-.017.46-.026.685-.026.345-.007.689.033 1.022.119.244.06.468.183.65.355.164.167.28.373.339.6.072.278.106.565.1.853l-.001.424-1.975.133a5.252 5.252 0 0 0-1.96.44 2.809 2.809 0 0 0-1.157.937c-.25.366-.382.799-.38 1.242-.003.415.099.825.296 1.19.206.377.517.685.895.888.461.24.976.356 1.495.338.487.01.971-.07 1.428-.237a3.288 3.288 0 0 0 1.064-.676c.117-.112.228-.23.332-.354a1.6 1.6 0 0 0 .183.498c.151.259.383.46.66.574.305.123.633.183.962.178.102 0 .2-.003.296-.009.094-.005.187-.02.279-.042l.245-.06c.066-.014.13-.034.194-.058l.186-1.132a1.48 1.48 0 0 1-.287.067c-.079.01-.158.017-.237.017Zm-2.814-.76c-.183.145-.381.27-.591.372a2.65 2.65 0 0 1-.659.22 3.715 3.715 0 0 1-.718.067 1.907 1.907 0 0 1-.802-.152c-.207-.09-.38-.24-.499-.431a1.263 1.263 0 0 1-.169-.667 1.28 1.28 0 0 1 .22-.794c.184-.215.433-.363.71-.423a5.15 5.15 0 0 1 1.317-.135h1.48l-.008 1.677c-.086.097-.18.186-.28.266ZM26.491 26.608c-.017-.006-.033-.014-.05-.021a5.827 5.827 0 0 0-2.146-.388 4.15 4.15 0 0 0-2.103.557 4.14 4.14 0 0 0-1.563 1.613 5.196 5.196 0 0 0-.591 2.577 5.21 5.21 0 0 0 .447 2.247 3.351 3.351 0 0 0 1.285 1.461c.605.356 1.299.535 2.001.515.431.003.86-.054 1.276-.169.414-.118.81-.295 1.174-.523.127-.078.253-.166.38-.258l.212.781h1.402V22.262l-1.724.236v4.11Zm-.904 6.948a3.54 3.54 0 0 1-1.208.245c-.483.014-.96-.1-1.385-.33a2.114 2.114 0 0 1-.878-1.013 4.231 4.231 0 0 1-.305-1.715c-.02-.601.096-1.199.338-1.749.207-.446.546-.818.972-1.064a2.996 2.996 0 0 1 1.512-.364 5.104 5.104 0 0 1 1.596.245c.083.027.174.062.262.094v5.207c-.287.175-.59.324-.905.444h.001ZM30.85 35h1.722v-8.785l-1.723.254V35ZM32.327 22.676a1.095 1.095 0 0 0-.582-.16 1.137 1.137 0 0 0-.592.16 1.24 1.24 0 0 0-.43.422 1.095 1.095 0 0 0-.161.583c-.002.208.054.413.16.591.104.177.252.323.431.423.18.101.385.154.591.152.205.002.406-.05.583-.152.174-.1.317-.247.414-.423.102-.18.154-.384.152-.591a1.14 1.14 0 0 0-.152-.583 1.194 1.194 0 0 0-.414-.422ZM42.844 28.268a3.693 3.693 0 0 0-1.495-1.53 4.638 4.638 0 0 0-2.29-.54 4.612 4.612 0 0 0-2.306.558 3.896 3.896 0 0 0-1.537 1.571 4.97 4.97 0 0 0-.549 2.399 5.177 5.177 0 0 0 .515 2.39c.324.65.84 1.184 1.478 1.53.688.36 1.455.54 2.23.523a4.758 4.758 0 0 0 2.332-.557 3.933 3.933 0 0 0 1.58-1.588 4.98 4.98 0 0 0 .566-2.433 4.897 4.897 0 0 0-.524-2.323Zm-1.597 4.13c-.19.44-.511.809-.92 1.056a2.625 2.625 0 0 1-1.352.347 2.403 2.403 0 0 1-1.318-.355 2.38 2.38 0 0 1-.878-1.064 4.26 4.26 0 0 1-.32-1.757c-.02-.586.089-1.169.32-1.707.19-.423.505-.777.904-1.013a2.735 2.735 0 0 1 1.394-.338c.38-.01.757.062 1.106.211.306.138.574.35.778.617.217.29.375.62.464.971.106.411.157.834.152 1.259a4.206 4.206 0 0 1-.33 1.774Z"/></svg>
